X: 112104
Q: "Reel."
M: C
L: 1/8
K: A
uc |:\
[1 Bcde fBBg | aBBa gfea :|\
[2 defa fecf | ecBc f2(eg) |]
|:\
aA A/A/A cAAg | aAAa fedc |\
[1 bB B/B/B dBB^a | bBBa gfeg :|\
[2 defa fecf | ecBc f2(ea) |]\
"_Fine"A4 ||



